src/images/glasses.svg

<svg xmlns="http://www.w3.org/2000/svg" xml:space="preserve" id="Слой_1" x="0" y="0" style="enable-background:new 0 0 69 94" version="1.1" viewBox="0 0 69 94"><style>.st0{fill:#264f26}</style><g id="Слой_2_00000121989462897134502560000017822122018553695621_"><g id="Слой_1-2"><path d="M46.9 10.1c4.9-.1 14.6-.2 19.5-.3h.3v.3c-1.5 13.5-2.7 27.1-6.5 40.2-8 22.1-13-36-13.3-40.2 1.8 13.4 3.2 27 7.1 39.9 2 5.6 3.3 5.7 5.3 0 3.8-13 5.1-26.6 6.8-39.9l.3.3c-4.9 0-14.7-.2-19.5-.3z" class="st0"/><path d="M57.6 54.8c.4 11.4.4 22.9.5 34.3v.6c.1.8-.6 1.6-1.4 1.6-.8.1-1.6-.6-1.6-1.4v-.8c0-11.2.1-23.1.5-34.3.4 11.4.5 23.5.5 34.9 0 .3.2.6.5.6.2 0 .4-.1.5-.2.1-.3.1-.6.1-.9-.1-11.5 0-22.9.4-34.4z" class="st0"/><path d="M57.6 88.2c2.9-.2 5.9.1 8.8.8 1 .2 1.8.7 2.4 1.4.4 1.5-1.5 2.1-2.6 2.4-4.8 1.2-9.8 1.5-14.7.8-2-.3-4-.5-5.8-1.7-.3-.2-.4-.5-.5-.8-.3-1 .9-1.6 1.6-1.9 2.8-.9 5.8-1.2 8.8-1.1-2.9.1-5.8.7-8.5 1.7-2.8 1.2.3 2 1.8 2.4 2.8.6 5.7.8 8.6.7 3.3-.1 6.8-.2 9.9-1.4.4-.2.8-.5.8-.7s-.2-.5-.6-.7c-3.1-1.4-6.6-1.6-10-1.9zM49.1 28c5-.7 10.1-.7 15.1 0-5 .7-10.1.7-15.1 0zM55.2 32.8c0 .9-.7 1.6-1.6 1.6-.9 0-1.6-.7-1.6-1.6 0-.9.7-1.6 1.6-1.6.8 0 1.6.7 1.6 1.6zm0 0c0-.6-.5-1.1-1.1-1.1-.6 0-1.1.5-1.1 1.1 0 .6.5 1.1 1.1 1.1s1.1-.5 1.1-1.1zM57.4 37.8c0 .4-.3.6-.6.6s-.6-.3-.6-.6c0-.4.3-.6.6-.6s.6.2.6.6c0-.1 0-.1 0 0zm0 0c0-.2-.3-.3-.4-.1s.1.2.1.1-.2 0-.1.1.4.1.4-.1zM61.3 31.7c0 .3-.2.6-.5.6s-.6-.2-.6-.5v-.1c0-.3.2-.6.5-.6s.6.2.6.5v.1zm0 0c0-.2-.3-.2-.3 0s.2.2.3 0c-.1-.2-.3-.1-.3 0s.3.1.3 0zM58.2 42.6c0 .5-.4.9-.9.9s-.9-.4-.9-.9.4-.9.9-.9c.6.1.9.4.9.9zm0 0c0-.6-.9-.5-.7 0-.1.5.7.7.7 0zM62.3 36.7c.1.5-.3 1-.8 1-.5.1-1-.3-1-.8v-.2c-.1-.5.3-1 .8-1 .5-.1 1 .3 1 .8v.2zm0 0c0-.7-.9-.6-.8 0-.1.6.8.7.8 0zM29 0c4.6 1.6 13.8 4.7 18.4 6.3l.3.1-.1.3c-5.9 12.2-11.7 24.7-19.7 35.6C12.9 60.3 27.8 4 29 0c-2.8 13.2-6.1 26.5-6.8 40-.1 6 1.2 6.5 5 1.8 7.9-11 13.7-23.3 19.8-35.3l.2.4C42.6 5.2 33.5 1.7 29 0z" class="st0"/><path d="M24 45.7c-3.6 11-7.5 22-11.3 33-.3.8-1.1 1.3-1.9 1h-.1l-.3-.5.3.5c-.5-.2-.9-.7-1-1.3 0-.5.1-.9.3-1.3 3.8-10.5 7.9-21.7 12-32.1-3.4 10.7-7.4 21.9-11.1 32.4-.1.2-.3.7-.2.9 0 .2.2.4.4.4l.3.5-.4-.4c.3.1.6-.1.7-.3v-.1c4-10.9 8-21.9 12.3-32.7z" class="st0"/><path d="M12.7 77.1c2.8.8 5.5 2.1 8 3.7.8.5 1.5 1.3 1.8 2.2-.1 1.5-2.1 1.4-3.2 1.4-4.9-.5-9.7-2-14.1-4.3-1.8-1-3.6-1.8-4.8-3.6-.3-.2-.4-.5-.4-.8.1-1 1.4-1.2 2.1-1.2 3 .2 5.9.8 8.6 2-2.8-.8-5.7-1.3-8.6-1.3-.7 0-1.9.2-1.3 1.1 2.6 2.7 6.5 4.1 10 5.4 3.1 1 6.4 2.2 9.8 2 .4 0 .9-.2 1-.4s0-.6-.3-.9c-2.3-2.5-5.5-3.8-8.6-5.3zM24.3 20.9c5-.1 10 .5 14.9 1.7-5 .2-10-.4-14.9-1.7zM29.1 24.1c-.3.9-1.3 1.3-2.1 1s-1.3-1.3-1-2.1c.3-.9 1.2-1.3 2.1-1s1.3 1.3 1 2.1zm0 0c.3-.6.1-1.2-.5-1.5-.6-.3-1.2-.1-1.5.5 0 .1-.1.2-.1.3-.2.6.1 1.2.7 1.5s1.2-.2 1.4-.8zM29.5 29.5c-.1.3-.5.5-.8.4-.3-.1-.5-.5-.4-.8.1-.3.5-.5.8-.4.4.1.6.5.4.8zm0 0c.1-.2-.2-.4-.3-.3s0 .2 0 .2-.2-.1-.1.1.4.3.4 0zM35.2 25.1c-.1.3-.4.4-.7.3s-.4-.4-.3-.7.4-.4.7-.3.4.5.3.7zm0 0c.1-.1-.2-.2-.2-.1s.1.3.2.1c0-.2-.2-.2-.2-.1s.2.3.2.1zM28.7 34.4c-.2.5-.7.7-1.1.5-.5-.2-.7-.7-.5-1.1s.7-.7 1.1-.5c.4.2.7.7.5 1.1zm0 0c.2-.6-.7-.8-.7-.2-.3.4.4.8.7.2zM34.5 30.2c-.2.5-.7.7-1.2.5-.5-.2-.7-.7-.5-1.2s.7-.7 1.2-.5c.5.2.7.7.5 1.2zm0 0c.2-.7-.7-.8-.8-.3-.2.5.5.9.8.3zM53.8 16.7c1.3-.3 2.6.1 3.5 1.1-1.3.4-2.6-.1-3.5-1.1z" class="st0"/><path d="M56.1 15.6c.3 1.3-.1 2.6-1.1 3.4-.3-1.3.1-2.6 1.1-3.4zM65.5 23.1c1.3-.3 2.6.1 3.5 1.1-1.3.3-2.6-.1-3.5-1.1z" class="st0"/><path d="M67.8 21.9c.3 1.3-.1 2.6-1.1 3.5-.3-1.3.1-2.6 1.1-3.5zM60.5 13.8c1.8-.1 3.6.5 5 1.6-1.8.2-3.6-.4-5-1.6z" class="st0"/><path d="M63.8 12.1c.1 1.8-.5 3.6-1.7 5 0-1.8.5-3.6 1.7-5zM26.3 4.8c1.3-.3 2.6.2 3.4 1.2-1.2.3-2.6-.1-3.4-1.2z" class="st0"/><path d="M28.6 3.7c.3 1.3-.1 2.6-1.1 3.5-.4-1.3.1-2.7 1.1-3.5zM33.7 1.8c1.2-.3 2.6.2 3.4 1.2-1.3.3-2.6-.1-3.4-1.2z" class="st0"/><path d="M36 .6c.3 1.3-.1 2.6-1.1 3.5-.3-1.3.1-2.6 1.1-3.5zM30.5 8.8c1.8-.1 3.6.5 5 1.6-1.8.1-3.6-.5-5-1.6z" class="st0"/><path d="M33.8 7.1c.1 1.8-.5 3.6-1.7 5 0-1.8.6-3.6 1.7-5z" class="st0"/></g></g></svg>

<?xml version="1.0" encoding="utf-8"?>
<!-- Generator: Adobe Illustrator 27.0.0, SVG Export Plug-In . SVG Version: 6.00 Build 0)  -->
<svg version="1.1" id="Слой_1" xmlns="http://www.w3.org/2000/svg" xmlns:xlink="http://www.w3.org/1999/xlink" x="0px" y="0px"
	 viewBox="0 0 69 94" style="enable-background:new 0 0 69 94;" xml:space="preserve">
<style type="text/css">
	.st0{fill:#264F26;}
</style>
<g id="Слой_2_00000121989462897134502560000017822122018553695621_">
	<g id="Слой_1-2">
		<path class="st0" d="M46.9,10.1c4.9-0.1,14.6-0.2,19.5-0.3h0.3v0.3c-1.5,13.5-2.7,27.1-6.5,40.2C52.2,72.4,47.2,14.3,46.9,10.1
			c1.8,13.4,3.2,27,7.1,39.9c2,5.6,3.3,5.7,5.3,0c3.8-13,5.1-26.6,6.8-39.9l0.3,0.3C61.5,10.4,51.7,10.2,46.9,10.1L46.9,10.1z"/>
		<path class="st0" d="M57.6,54.8c0.4,11.4,0.4,22.9,0.5,34.3v0.6c0.1,0.8-0.6,1.6-1.4,1.6c-0.8,0.1-1.6-0.6-1.6-1.4
			c0-0.1,0-0.2,0-0.2v-0.6c0-11.2,0.1-23.1,0.5-34.3c0.4,11.4,0.5,23.5,0.5,34.9c0,0.3,0.2,0.6,0.5,0.6c0.2,0,0.4-0.1,0.5-0.2
			c0.1-0.3,0.1-0.6,0.1-0.9C57.1,77.7,57.2,66.3,57.6,54.8L57.6,54.8z"/>
		<path class="st0" d="M57.6,88.2c2.9-0.2,5.9,0.1,8.8,0.8c1,0.2,1.8,0.7,2.4,1.4c0.4,1.5-1.5,2.1-2.6,2.4
			c-4.8,1.2-9.8,1.5-14.7,0.8c-2-0.3-4-0.5-5.8-1.7c-0.3-0.2-0.4-0.5-0.5-0.8c-0.3-1,0.9-1.6,1.6-1.9c2.8-0.9,5.8-1.2,8.8-1.1
			c-2.9,0.1-5.8,0.7-8.5,1.7c-2.8,1.2,0.3,2,1.8,2.4c2.8,0.6,5.7,0.8,8.6,0.7c3.3-0.1,6.8-0.2,9.9-1.4c0.4-0.2,0.8-0.5,0.8-0.7
			s-0.2-0.5-0.6-0.7C64.5,88.7,61,88.5,57.6,88.2L57.6,88.2z"/>
		<path class="st0" d="M49.1,28c5-0.7,10.1-0.7,15.1,0C59.2,28.7,54.1,28.7,49.1,28z"/>
		<path class="st0" d="M55.2,32.8c0,0.9-0.7,1.6-1.6,1.6c-0.9,0-1.6-0.7-1.6-1.6c0-0.9,0.7-1.6,1.6-1.6
			C54.4,31.2,55.2,31.9,55.2,32.8z M55.2,32.8c0-0.6-0.5-1.1-1.1-1.1c-0.6,0-1.1,0.5-1.1,1.1c0,0,0,0,0,0c0,0.6,0.5,1.1,1.1,1.1
			S55.2,33.4,55.2,32.8C55.2,32.8,55.2,32.8,55.2,32.8z"/>
		<path class="st0" d="M57.4,37.8c0,0.4-0.3,0.6-0.6,0.6s-0.6-0.3-0.6-0.6c0,0,0,0,0,0c0-0.4,0.3-0.6,0.6-0.6S57.4,37.4,57.4,37.8
			C57.4,37.7,57.4,37.7,57.4,37.8z M57.4,37.8c0-0.2-0.3-0.3-0.4-0.1s0.1,0.2,0.1,0.1s-0.2,0-0.1,0.1S57.4,38,57.4,37.8z"/>
		<path class="st0" d="M61.3,31.7c0,0.3-0.2,0.6-0.5,0.6c-0.3,0-0.6-0.2-0.6-0.5c0,0,0-0.1,0-0.1c0-0.3,0.2-0.6,0.5-0.6
			c0.3,0,0.6,0.2,0.6,0.5C61.3,31.6,61.3,31.6,61.3,31.7z M61.3,31.7c0-0.2-0.3-0.2-0.3,0S61.2,31.9,61.3,31.7
			c-0.1-0.2-0.3-0.1-0.3,0S61.3,31.8,61.3,31.7z"/>
		<path class="st0" d="M58.2,42.6c0,0.5-0.4,0.9-0.9,0.9c-0.5,0-0.9-0.4-0.9-0.9s0.4-0.9,0.9-0.9C57.9,41.8,58.2,42.1,58.2,42.6z
			 M58.2,42.6c0-0.6-0.9-0.5-0.7,0C57.4,43.1,58.2,43.3,58.2,42.6z"/>
		<path class="st0" d="M62.3,36.7c0.1,0.5-0.3,1-0.8,1c-0.5,0.1-1-0.3-1-0.8c0-0.1,0-0.1,0-0.2c-0.1-0.5,0.3-1,0.8-1
			c0.5-0.1,1,0.3,1,0.8C62.3,36.6,62.3,36.6,62.3,36.7z M62.3,36.7c0-0.7-0.9-0.6-0.8,0C61.4,37.3,62.3,37.4,62.3,36.7z"/>
		<path class="st0" d="M29,0c4.6,1.6,13.8,4.7,18.4,6.3l0.3,0.1l-0.1,0.3c-5.9,12.2-11.7,24.7-19.7,35.6C12.9,60.3,27.8,4,29,0
			c-2.8,13.2-6.1,26.5-6.8,40c-0.1,6,1.2,6.5,5,1.8C35.1,30.8,40.9,18.5,47,6.5l0.2,0.4C42.6,5.2,33.5,1.7,29,0z"/>
		<path class="st0" d="M24,45.7c-3.6,11-7.5,22-11.3,33c-0.3,0.8-1.1,1.3-1.9,1c0,0,0,0-0.1,0l-0.3-0.5l0.3,0.5
			c-0.5-0.2-0.9-0.7-1-1.3c0-0.5,0.1-0.9,0.3-1.3c3.8-10.5,7.9-21.7,12-32.1c-3.4,10.7-7.4,21.9-11.1,32.4c-0.1,0.2-0.3,0.7-0.2,0.9
			c0,0.2,0.2,0.4,0.4,0.4l0.3,0.5L11,78.8c0.3,0.1,0.6-0.1,0.7-0.3c0,0,0,0,0-0.1C15.7,67.5,19.7,56.5,24,45.7L24,45.7z"/>
		<path class="st0" d="M12.7,77.1c2.8,0.8,5.5,2.1,8,3.7c0.8,0.5,1.5,1.3,1.8,2.2c-0.1,1.5-2.1,1.4-3.2,1.4c-4.9-0.5-9.7-2-14.1-4.3
			c-1.8-1-3.6-1.8-4.8-3.6C0.1,76.3,0,76,0,75.7c0.1-1,1.4-1.2,2.1-1.2c3,0.2,5.9,0.8,8.6,2c-2.8-0.8-5.7-1.3-8.6-1.3
			c-0.7,0-1.9,0.2-1.3,1.1c2.6,2.7,6.5,4.1,10,5.4c3.1,1,6.4,2.2,9.8,2c0.4,0,0.9-0.2,1-0.4s0-0.6-0.3-0.9
			C19,79.9,15.8,78.6,12.7,77.1L12.7,77.1z"/>
		<path class="st0" d="M24.3,20.9c5-0.1,10,0.5,14.9,1.7C34.2,22.8,29.2,22.2,24.3,20.9z"/>
		<path class="st0" d="M29.1,24.1c-0.3,0.9-1.3,1.3-2.1,1s-1.3-1.3-1-2.1c0.3-0.9,1.2-1.3,2.1-1S29.4,23.3,29.1,24.1L29.1,24.1z
			 M29.1,24.1c0.3-0.6,0.1-1.2-0.5-1.5c-0.6-0.3-1.2-0.1-1.5,0.5c0,0.1-0.1,0.2-0.1,0.3c-0.2,0.6,0.1,1.2,0.7,1.5
			S28.9,24.7,29.1,24.1L29.1,24.1L29.1,24.1z"/>
		<path class="st0" d="M29.5,29.5c-0.1,0.3-0.5,0.5-0.8,0.4c-0.3-0.1-0.5-0.5-0.4-0.8l0,0c0.1-0.3,0.5-0.5,0.8-0.4
			C29.5,28.8,29.7,29.2,29.5,29.5z M29.5,29.5c0.1-0.2-0.2-0.4-0.3-0.3s0,0.2,0,0.2s-0.2-0.1-0.1,0.1S29.5,29.8,29.5,29.5z"/>
		<path class="st0" d="M35.2,25.1c-0.1,0.3-0.4,0.4-0.7,0.3s-0.4-0.4-0.3-0.7s0.4-0.4,0.7-0.3S35.3,24.9,35.2,25.1z M35.2,25.1
			C35.3,25,35,24.9,35,25S35.1,25.3,35.2,25.1c0-0.2-0.2-0.2-0.2-0.1S35.2,25.3,35.2,25.1L35.2,25.1z"/>
		<path class="st0" d="M28.7,34.4c-0.2,0.5-0.7,0.7-1.1,0.5c-0.5-0.2-0.7-0.7-0.5-1.1s0.7-0.7,1.1-0.5C28.6,33.5,28.9,34,28.7,34.4z
			 M28.7,34.4c0.2-0.6-0.7-0.8-0.7-0.2C27.7,34.6,28.4,35,28.7,34.4z"/>
		<path class="st0" d="M34.5,30.2c-0.2,0.5-0.7,0.7-1.2,0.5c-0.5-0.2-0.7-0.7-0.5-1.2s0.7-0.7,1.2-0.5
			C34.5,29.2,34.7,29.7,34.5,30.2z M34.5,30.2c0.2-0.7-0.7-0.8-0.8-0.3C33.5,30.4,34.2,30.8,34.5,30.2z"/>
		<path class="st0" d="M53.8,16.7c1.3-0.3,2.6,0.1,3.5,1.1C56,18.2,54.7,17.7,53.8,16.7z"/>
		<path class="st0" d="M56.1,15.6c0.3,1.3-0.1,2.6-1.1,3.4C54.7,17.7,55.1,16.4,56.1,15.6L56.1,15.6z"/>
		<path class="st0" d="M65.5,23.1c1.3-0.3,2.6,0.1,3.5,1.1C67.7,24.5,66.4,24.1,65.5,23.1L65.5,23.1z"/>
		<path class="st0" d="M67.8,21.9c0.3,1.3-0.1,2.6-1.1,3.5C66.4,24.1,66.8,22.8,67.8,21.9z"/>
		<path class="st0" d="M60.5,13.8c1.8-0.1,3.6,0.5,5,1.6C63.7,15.6,61.9,15,60.5,13.8z"/>
		<path class="st0" d="M63.8,12.1c0.1,1.8-0.5,3.6-1.7,5C62.1,15.3,62.6,13.5,63.8,12.1z"/>
		<path class="st0" d="M26.3,4.8C27.6,4.5,28.9,5,29.7,6C28.5,6.3,27.1,5.9,26.3,4.8L26.3,4.8z"/>
		<path class="st0" d="M28.6,3.7c0.3,1.3-0.1,2.6-1.1,3.5C27.1,5.9,27.6,4.5,28.6,3.7z"/>
		<path class="st0" d="M33.7,1.8C34.9,1.5,36.3,2,37.1,3C35.8,3.3,34.5,2.9,33.7,1.8L33.7,1.8z"/>
		<path class="st0" d="M36,0.6c0.3,1.3-0.1,2.6-1.1,3.5C34.6,2.8,35,1.5,36,0.6z"/>
		<path class="st0" d="M30.5,8.8c1.8-0.1,3.6,0.5,5,1.6C33.7,10.5,31.9,9.9,30.5,8.8z"/>
		<path class="st0" d="M33.8,7.1c0.1,1.8-0.5,3.6-1.7,5C32.1,10.3,32.7,8.5,33.8,7.1z"/>
	</g>
</g>
</svg>
